icons/linear-ele-food-fruit-pear.svg

<svg xmlns="http://www.w3.org/2000/svg" width="32px" height="32px" viewBox="0 0 32 32" version="1.1">
    <title>linear-ele-food-fruit-pear</title>
    <g id="linear-ele-food-fruit-pear" stroke-width="1" fill-rule="evenodd">
        <path d="M19.8320503,2.4452998 C20.1384028,2.90482849 20.0142289,3.52569784 19.5547002,3.83205029 C18.8391937,4.3090546 18.1678516,5.16382527 17.6930869,6.15869153 C21.0652117,6.83076397 23.0056633,9.62147379 23.4464877,14.2789503 L23.458,14.413 L23.5248553,14.4560265 C25.7363255,15.9115397 26.9111615,18.0192357 26.9951528,20.6894117 L27,21 C27,26.1863391 22.868534,30 16,30 C9.131466,30 5,26.1863391 5,21 C5,18.286689 6.0929297,16.1324079 8.22457858,14.6268595 L8.541,14.413 L8.55351233,14.2789503 C9.04727389,9.06217185 11.4224599,6.18742895 15.5818317,6.00885747 C16.1989322,4.39737117 17.2464214,2.967202 18.4452998,2.16794971 C18.9048285,1.86159725 19.5256978,1.98577112 19.8320503,2.4452998 Z M15.060434,8.06228404 L14.9245846,8.0823705 C12.2150351,8.52328629 10.7677548,10.7471426 10.4980526,15.0623783 C10.4770539,15.3983577 10.2884199,15.7012254 9.99613894,15.8682431 C7.97363825,17.0239578 7,18.693052 7,21 C7,25.0444302 10.2018673,28 16,28 C21.7981327,28 25,25.0444302 25,21 C25,18.693052 24.0263617,17.0239578 22.0038611,15.8682431 C21.7115801,15.7012254 21.5229461,15.3983577 21.5019474,15.0623783 C21.2323458,10.7487528 19.7860448,8.52494617 17.0784479,8.08286481 C17.0272039,8.39107463 17,8.69851378 17,9 C17,9.55228475 16.5522847,10 16,10 C15.4477153,10 15,9.55228475 15,9 C15,8.6894832 15.0207465,8.37594523 15.060434,8.06228404 Z" id="&#24418;&#29366;" fill-rule="nonzero" />
    </g>
</svg>

<svg xmlns="http://www.w3.org/2000/svg" viewBox="0 0 32 32"><path fill="currentColor" d="M19.832 2.445a1 1 0 0 1-.277 1.387c-.716.477-1.387 1.332-1.862 2.327 3.372.672 5.313 3.462 5.753 8.12l.012.134.067.043c2.211 1.456 3.386 3.563 3.47 6.233L27 21c0 5.186-4.131 9-11 9S5 26.186 5 21c0-2.713 1.093-4.868 3.225-6.373l.316-.214.013-.134c.493-5.217 2.868-8.092 7.028-8.27.617-1.612 1.664-3.042 2.863-3.841a1 1 0 0 1 1.387.277M15.06 8.062l-.135.02c-2.71.441-4.157 2.665-4.427 6.98a1 1 0 0 1-.502.806C7.974 17.024 7 18.693 7 21c0 4.044 3.202 7 9 7s9-2.956 9-7c0-2.307-.974-3.976-2.996-5.132a1 1 0 0 1-.502-.806c-.27-4.313-1.716-6.537-4.424-6.98A5.603 5.603 0 0 0 17 9a1 1 0 0 1-2 0c0-.31.02-.624.06-.938"/></svg>
